src/assets/media/logo.svg

<svg width="96" height="24" viewBox="0 0 96 24" fill="none" xmlns="http://www.w3.org/2000/svg">
    <path d="M26.9194 20.0678V7.25504H29.6614V8.57475V12.7133V20.0678H26.9194Z" fill="#101828"/>
    <path d="M41.2908 20.401C40.112 20.401 39.0357 20.0977 38.062 19.4913C37.0967 18.8848 36.3237 18.0733 35.7428 17.0568C35.1705 16.0318 34.8844 14.9 34.8844 13.6614C34.8844 12.7218 35.051 11.8463 35.3841 11.0348C35.7172 10.2148 36.1742 9.49728 36.7551 8.88226C37.3444 8.25871 38.0278 7.77182 38.8051 7.4216C39.5824 7.07139 40.411 6.89628 41.2908 6.89628C42.2731 6.89628 43.1743 7.10128 43.9943 7.51129C44.8229 7.9213 45.5276 8.48506 46.1084 9.20258C46.6893 9.9201 47.1163 10.7444 47.3897 11.6755C47.663 12.598 47.7399 13.576 47.6203 14.6096H37.8185C37.9296 15.1904 38.1431 15.7115 38.4592 16.1727C38.7752 16.6255 39.1724 16.9842 39.6508 17.249C40.1376 17.5138 40.6843 17.6505 41.2908 17.659C41.9229 17.6676 42.4995 17.5138 43.0205 17.1978C43.5416 16.8732 43.9687 16.4333 44.3018 15.8781L47.0822 16.5315C46.5697 17.6676 45.7966 18.5986 44.7631 19.3247C43.7295 20.0422 42.5721 20.401 41.2908 20.401ZM37.7288 12.5339H44.8527C44.7673 11.936 44.5538 11.3936 44.2121 10.9067C43.879 10.4198 43.4562 10.0311 42.9436 9.74072C42.4397 9.4503 41.8887 9.30508 41.2908 9.30508C40.7014 9.30508 40.1547 9.4503 39.6508 9.74072C39.1468 10.0226 38.7282 10.407 38.3951 10.8939C38.062 11.3808 37.8399 11.9274 37.7288 12.5339Z"
          fill="#101828"/>
    <path d="M59.6343 7.25504H62.3763V20.0678H59.6343L59.5062 18.2484C59.1389 18.8891 58.6392 19.4101 58.0071 19.8116C57.3835 20.2045 56.6447 20.401 55.7905 20.401C54.8423 20.401 53.954 20.2259 53.1254 19.8756C52.2969 19.5169 51.5665 19.0215 50.9344 18.3894C50.3109 17.7573 49.824 17.0312 49.4738 16.2112C49.1235 15.3826 48.9484 14.4943 48.9484 13.5461C48.9484 12.6236 49.1193 11.7609 49.461 10.9579C49.8026 10.155 50.2767 9.4503 50.8832 8.84382C51.4896 8.23735 52.1901 7.76328 52.9845 7.4216C53.7874 7.07139 54.6459 6.89628 55.5598 6.89628C56.4738 6.89628 57.281 7.10555 57.9815 7.5241C58.6904 7.93411 59.2798 8.46371 59.7496 9.11289L59.6343 7.25504ZM55.7136 17.7615C56.4567 17.7615 57.1059 17.5779 57.6611 17.2106C58.2164 16.8433 58.6477 16.3479 58.9552 15.7243C59.2627 15.1007 59.4165 14.4131 59.4165 13.6614C59.4165 12.8927 59.2585 12.2008 58.9424 11.5858C58.6349 10.9622 58.2036 10.471 57.6483 10.1123C57.0931 9.74499 56.4482 9.56134 55.7136 9.56134C54.9875 9.56134 54.3213 9.74499 53.7148 10.1123C53.1169 10.4796 52.6385 10.975 52.2798 11.5986C51.9296 12.2136 51.7544 12.9012 51.7544 13.6614C51.7544 14.4217 51.9338 15.1136 52.2926 15.7371C52.6599 16.3521 53.1425 16.8433 53.7404 17.2106C54.3469 17.5779 55.0046 17.7615 55.7136 17.7615Z"
          fill="#101828"/>
    <path d="M65.0325 20.0678V0.848633H67.7744V20.0678H65.0325Z" fill="#101828"/>
    <path d="M76.3008 20.401C75.122 20.401 74.0457 20.0977 73.0719 19.4913C72.1067 18.8848 71.3337 18.0733 70.7528 17.0568C70.1805 16.0318 69.8944 14.9 69.8944 13.6614C69.8944 12.7218 70.0609 11.8463 70.3941 11.0348C70.7272 10.2148 71.1842 9.49728 71.765 8.88226C72.3544 8.25871 73.0378 7.77182 73.8151 7.4216C74.5924 7.07139 75.421 6.89628 76.3008 6.89628C77.4795 6.89628 78.5515 7.19951 79.5168 7.80599C80.4906 8.41246 81.2636 9.22821 81.8359 10.2532C82.4167 11.2783 82.7072 12.4143 82.7072 13.6614C82.7072 14.5925 82.5406 15.4638 82.2075 16.2753C81.8743 17.0867 81.4131 17.8042 80.8237 18.4278C80.2428 19.0428 79.5638 19.5254 78.7864 19.8756C78.0177 20.2259 77.1891 20.401 76.3008 20.401ZM76.3008 17.659C76.9927 17.659 77.6162 17.4754 78.1714 17.1081C78.7267 16.7408 79.1623 16.2539 79.4783 15.6474C79.8029 15.0409 79.9652 14.379 79.9652 13.6614C79.9652 12.9268 79.7987 12.2563 79.4655 11.6498C79.1409 11.0348 78.701 10.5479 78.1458 10.1892C77.5906 9.82187 76.9756 9.63822 76.3008 9.63822C75.6089 9.63822 74.9853 9.82187 74.4301 10.1892C73.8749 10.5565 73.435 11.0476 73.1104 11.6626C72.7943 12.2691 72.6363 12.9354 72.6363 13.6614C72.6363 14.4131 72.8029 15.0922 73.136 15.6987C73.4691 16.2966 73.9133 16.7749 74.4685 17.1337C75.0238 17.4839 75.6345 17.659 76.3008 17.659Z"
          fill="#101828"/>
    <path d="M93.0549 16.4034L95.5022 17.7231C94.9213 18.5346 94.1824 19.1838 93.2855 19.6706C92.3972 20.1575 91.4319 20.401 90.3898 20.401C89.2111 20.401 88.1348 20.0977 87.161 19.4913C86.1958 18.8848 85.4227 18.0733 84.8419 17.0568C84.2696 16.0318 83.9834 14.9 83.9834 13.6614C83.9834 12.7218 84.15 11.8463 84.4831 11.0348C84.8163 10.2148 85.2733 9.49728 85.8541 8.88226C86.4435 8.25871 87.1268 7.77182 87.9042 7.4216C88.6815 7.07139 89.51 6.89628 90.3898 6.89628C91.4319 6.89628 92.3972 7.13972 93.2855 7.62661C94.1824 8.11349 94.9213 8.76695 95.5022 9.58697L93.0549 10.9067C92.7047 10.4967 92.2947 10.1849 91.8249 9.97135C91.3636 9.74926 90.8853 9.63822 90.3898 9.63822C89.6979 9.63822 89.0744 9.82614 88.5192 10.202C87.964 10.5693 87.524 11.0604 87.1995 11.6755C86.8834 12.2819 86.7254 12.9439 86.7254 13.6614C86.7254 14.379 86.8877 15.0409 87.2123 15.6474C87.5369 16.2539 87.9768 16.7408 88.532 17.1081C89.0872 17.4754 89.7065 17.659 90.3898 17.659C90.9109 17.659 91.402 17.5437 91.8633 17.3131C92.3246 17.0825 92.7218 16.7792 93.0549 16.4034Z"
          fill="#101828"/>
    <path d="M29.6284 10.0548L31.6345 6.89575H34.8535L32.8533 10.0548H29.6284Z" fill="#101828"/>
    <path d="M13.8943 23.9999H10.6696L11.6873 22.3964L14.4446 18.0472H17.6634L13.8943 23.9999Z" fill="#2F56FF"/>
    <path d="M17.4022 13.2959C18.8578 10.2899 18.0768 6.6213 15.4141 4.47929L15.2366 4.33136C13.9526 3.28994 12.3255 2.71598 10.6687 2.71598C9.01198 2.71598 7.39073 3.28994 6.10083 4.33136L5.91741 4.47929C3.04176 6.79882 2.36131 10.9112 4.34941 14.0296L10.6687 24H7.4499L2.05363 15.4911C-0.668171 11.1953 0.260792 5.55621 4.21332 2.36686L4.39675 2.21893C6.16 0.786982 8.3907 0 10.6687 0C12.9468 0 15.1715 0.786982 16.9466 2.21893L17.1241 2.36686C20.4317 5.0355 21.621 9.42012 20.3252 13.2959H17.4022Z"
          fill="#2F56FF"/>
    <path d="M19.9236 14.3135C19.7402 14.7159 19.5272 15.1064 19.2846 15.4851L18.3083 17.0295H11.9002L11.2849 16.0591L12.3973 14.3135L13.0422 13.2958L13.841 12.0354C14.7995 10.5147 14.4741 8.51471 13.0718 7.38453L12.8943 7.24252C12.2434 6.71589 11.4565 6.44962 10.6695 6.44962C9.88254 6.44962 9.09559 6.71589 8.44472 7.24252L8.26721 7.38453C6.87081 8.51471 6.53946 10.5147 7.50392 12.0354L8.58081 13.7396L12.273 19.5739L10.6695 22.1005L8.37963 18.4851L5.20814 13.4851C3.50997 10.7987 4.08984 7.2721 6.56313 5.2721L6.74064 5.12418C7.84711 4.23068 9.24351 3.73364 10.6695 3.73364C12.0955 3.73364 13.4919 4.23068 14.6043 5.13009L14.7818 5.2721C17.2018 7.22477 17.8113 10.639 16.2492 13.2958C16.2137 13.3609 16.1723 13.426 16.1309 13.4851L15.6042 14.3135H19.9236Z"
          fill="#20BBF7"/>
</svg>

<svg width="96" height="24" fill="none" xmlns="http://www.w3.org/2000/svg">
    <path d="M26.92 20.068V7.255h2.741v12.813H26.92zM41.29 20.401a5.987 5.987 0 0 1-3.228-.91 6.82 6.82 0 0 1-2.32-2.434c-.572-1.025-.858-2.157-.858-3.396 0-.94.167-1.815.5-2.626.333-.82.79-1.538 1.371-2.153a6.43 6.43 0 0 1 2.05-1.46 5.981 5.981 0 0 1 2.486-.526c.982 0 1.883.205 2.703.615a6.26 6.26 0 0 1 2.114 1.692 7.033 7.033 0 0 1 1.282 2.473c.273.922.35 1.9.23 2.934H37.82a4.09 4.09 0 0 0 .64 1.563c.316.453.713.811 1.192 1.076a3.48 3.48 0 0 0 1.64.41 3.185 3.185 0 0 0 1.73-.461 3.871 3.871 0 0 0 1.28-1.32l2.781.654a6.753 6.753 0 0 1-2.319 2.793 5.948 5.948 0 0 1-3.472 1.076zm-3.561-7.867h7.124a3.704 3.704 0 0 0-.64-1.627 3.768 3.768 0 0 0-1.27-1.166 3.252 3.252 0 0 0-1.652-.436c-.59 0-1.136.145-1.64.436a3.684 3.684 0 0 0-1.256 1.153 4.213 4.213 0 0 0-.666 1.64zM59.634 7.255h2.742v12.813h-2.742l-.128-1.82a4.45 4.45 0 0 1-1.499 1.564c-.623.392-1.362.589-2.216.589a6.773 6.773 0 0 1-2.666-.525 7.006 7.006 0 0 1-2.19-1.487 6.975 6.975 0 0 1-1.461-2.178 6.773 6.773 0 0 1-.526-2.665c0-.922.171-1.785.513-2.588a6.671 6.671 0 0 1 3.523-3.536 6.37 6.37 0 0 1 2.576-.526c.914 0 1.721.21 2.421.628a5.64 5.64 0 0 1 1.769 1.589l-.116-1.858zm-3.92 10.507c.743 0 1.392-.184 1.947-.551a3.71 3.71 0 0 0 1.294-1.487 4.6 4.6 0 0 0 .462-2.063c0-.768-.159-1.46-.475-2.075a3.618 3.618 0 0 0-1.294-1.474c-.555-.367-1.2-.55-1.934-.55-.727 0-1.393.183-2 .55a4.094 4.094 0 0 0-1.96 3.55c0 .76.18 1.452.539 2.075a4.27 4.27 0 0 0 1.447 1.474 3.74 3.74 0 0 0 1.974.55zM65.032 20.068V.848h2.742v19.22h-2.742zM76.3 20.401a5.987 5.987 0 0 1-3.228-.91 6.821 6.821 0 0 1-2.32-2.434c-.572-1.025-.858-2.157-.858-3.396 0-.94.167-1.815.5-2.626.333-.82.79-1.538 1.371-2.153a6.431 6.431 0 0 1 2.05-1.46 5.981 5.981 0 0 1 2.486-.526c1.178 0 2.25.304 3.216.91a6.649 6.649 0 0 1 2.319 2.447c.58 1.025.871 2.161.871 3.408 0 .931-.166 1.803-.5 2.614a6.943 6.943 0 0 1-1.383 2.153 6.378 6.378 0 0 1-2.038 1.448 5.923 5.923 0 0 1-2.485.525zm0-2.742c.693 0 1.316-.184 1.871-.55.556-.368.991-.855 1.307-1.462a4.142 4.142 0 0 0 .487-1.986c0-.734-.166-1.405-.5-2.011a3.83 3.83 0 0 0-1.32-1.46 3.272 3.272 0 0 0-1.844-.552c-.692 0-1.316.184-1.87.551a3.932 3.932 0 0 0-1.32 1.474 4.259 4.259 0 0 0-.475 1.998c0 .752.167 1.431.5 2.038a3.988 3.988 0 0 0 1.333 1.435c.555.35 1.166.525 1.832.525zM93.055 16.403l2.447 1.32a6.498 6.498 0 0 1-2.216 1.948 5.927 5.927 0 0 1-2.896.73 5.987 5.987 0 0 1-3.229-.91 6.82 6.82 0 0 1-2.32-2.434c-.571-1.025-.858-2.157-.858-3.396 0-.94.167-1.815.5-2.626.333-.82.79-1.538 1.371-2.153a6.43 6.43 0 0 1 2.05-1.46 5.98 5.98 0 0 1 2.486-.526c1.042 0 2.007.244 2.895.73a6.447 6.447 0 0 1 2.217 1.961l-2.447 1.32c-.35-.41-.76-.722-1.23-.936a3.27 3.27 0 0 0-1.435-.333 3.26 3.26 0 0 0-1.87.564 3.931 3.931 0 0 0-1.32 1.473 4.231 4.231 0 0 0-.475 1.986c0 .718.163 1.38.487 1.986a3.959 3.959 0 0 0 1.32 1.461c.555.367 1.175.551 1.858.551a3.25 3.25 0 0 0 1.473-.346c.462-.23.859-.534 1.192-.91z"
          fill="#101828"/>
    <path d="m29.628 10.055 2.006-3.16h3.22l-2 3.16h-3.226z" fill="#101828"/>
    <path d="M13.894 24H10.67l1.017-1.604 2.758-4.349h3.218L13.894 24z" fill="#2F56FF"/>
    <path d="M17.402 13.296a7.26 7.26 0 0 0-1.988-8.817l-.177-.148a7.282 7.282 0 0 0-4.568-1.615A7.294 7.294 0 0 0 6.1 4.331l-.184.148a7.259 7.259 0 0 0-1.568 9.55L10.67 24h-3.22l-5.395-8.509a9.985 9.985 0 0 1 2.16-13.124l.183-.148a9.981 9.981 0 0 1 12.55 0l.177.148a9.979 9.979 0 0 1 3.201 10.929h-2.923z"
          fill="#2F56FF"/>
    <path d="M19.924 14.313a9.387 9.387 0 0 1-.64 1.172l-.976 1.544H11.9l-.615-.97 1.112-1.746.645-1.017.799-1.26a3.544 3.544 0 0 0-.77-4.651l-.177-.142a3.533 3.533 0 0 0-2.225-.793c-.786 0-1.573.266-2.224.793l-.178.142a3.543 3.543 0 0 0-.763 4.65L8.58 13.74l3.692 5.834-1.604 2.526-2.29-3.615-3.17-5a6.256 6.256 0 0 1 1.354-8.213l.178-.148a6.28 6.28 0 0 1 3.928-1.39 6.28 6.28 0 0 1 3.935 1.396l.178.142a6.243 6.243 0 0 1 1.349 8.213l-.527.829h4.32z"
          fill="#20BBF7"/>
</svg>
